src/olympics.svg

<svg viewBox="0 0 66 66" fill="none" xmlns="http://www.w3.org/2000/svg"><path d="M15.8888 43.0287C8.24403 43.0287 2.02485 36.8102 2.02485 29.1661C2.01997 25.667 3.34273 22.2964 5.72613 19.7346L10.5626 24.2253C9.31432 25.5674 8.62158 27.3331 8.6242 29.1661C8.6242 33.1709 11.8833 36.4287 15.8882 36.4287C18.9077 36.4287 21.644 34.5292 22.6974 31.7018L28.8822 34.0065C26.8712 39.4033 21.6493 43.0287 15.8888 43.0287Z" fill="#007DB9"/><path d="M33.0019 30.5917C25.3572 30.5917 19.1373 24.3718 19.1373 16.727C19.1373 9.0816 25.3572 2.86176 33.0019 2.86176C33.8772 2.86176 34.7165 3.20943 35.3354 3.8283C35.9543 4.44717 36.3019 5.28654 36.3019 6.16176C36.3019 7.03697 35.9543 7.87634 35.3354 8.49521C34.7165 9.11408 33.8772 9.46176 33.0019 9.46176C28.9964 9.46176 25.7373 12.7208 25.7373 16.727C25.7373 20.7326 28.9964 23.9917 33.0019 23.9917C33.8772 23.9917 34.7165 24.3393 35.3354 24.9582C35.9543 25.5771 36.3019 26.4164 36.3019 27.2917C36.3019 28.1669 35.9543 29.0062 35.3354 29.6251C34.7165 30.244 33.8772 30.5917 33.0019 30.5917Z" fill="black"/><path d="M37.2788 34.4362C36.595 32.7692 36.2447 30.9843 36.2479 29.1826C36.2479 21.5378 42.4671 15.3193 50.1118 15.3193C53.5372 15.3193 56.8267 16.5786 59.373 18.8655L54.9628 23.7759C53.6304 22.5791 51.9022 21.9178 50.1112 21.9193C46.1063 21.9193 42.8472 25.1777 42.8472 29.1826C42.8472 30.1369 43.0281 31.0623 43.3845 31.9328L37.2788 34.4362Z" fill="#ED1B2F"/><path d="M53.594 58.8647L48.8281 54.2989C50.1259 52.9488 50.849 51.1476 50.8451 49.2749C50.8451 45.2694 47.5866 42.0103 43.5818 42.0103C42.2987 42.0103 41.0381 42.3482 39.9379 42.9884L36.6214 37.2821C38.7362 36.0556 41.1377 35.4098 43.5824 35.4103C51.2265 35.4103 57.4457 41.6301 57.4457 49.2749C57.4519 52.8497 56.0711 56.2874 53.594 58.8647Z" fill="#00AC4E"/><path d="M13.8177 60.1207C12.1778 58.8258 10.8534 57.1752 9.94459 55.2937C9.03576 53.4121 8.56622 51.3487 8.57139 49.2591C8.57139 41.6143 14.7912 35.3945 22.436 35.3945C25.5849 35.3945 28.6691 36.4802 31.1203 38.4516L26.9834 43.5943C25.6971 42.5528 24.0904 41.9877 22.4354 41.9945C18.4298 41.9945 15.1707 45.2536 15.1707 49.2591C15.1707 51.4886 16.1739 53.5636 17.9216 54.9523L13.8177 60.1207Z" fill="#FFCB08"/><path d="M22.436 63.1224C19.3075 63.1194 16.2713 62.0619 13.8177 60.1207L17.9223 54.9523C19.2036 55.9754 20.7964 56.5294 22.436 56.5224C26.4409 56.5224 29.7 53.264 29.7 49.2591C29.7 47.0481 28.71 44.983 26.9834 43.5943L31.1216 38.4523C32.741 39.749 34.0475 41.3939 34.9439 43.2648C35.8404 45.1357 36.3039 47.1845 36.3 49.2591C36.3 56.9032 30.0808 63.1224 22.436 63.1224Z" fill="#FFCB08"/><path d="M28.8829 34.0072L22.698 31.7024C22.9997 30.8939 23.1521 30.0406 23.1521 29.1661C23.1521 25.1612 19.893 21.9028 15.8882 21.9028C13.8441 21.9028 11.9532 22.7278 10.5626 24.2253L5.72614 19.734C7.02583 18.3383 8.59858 17.2248 10.3467 16.4625C12.0949 15.7002 13.981 15.3055 15.8882 15.3028C23.5329 15.3028 29.7521 21.5219 29.7521 29.1661C29.7545 30.8188 29.4601 32.4585 28.8829 34.0072Z" fill="#007DB9"/><path d="M33.002 30.5917C32.1268 30.5917 31.2874 30.244 30.6685 29.6251C30.0496 29.0062 29.702 28.1669 29.702 27.2917C29.702 26.4164 30.0496 25.5771 30.6685 24.9582C31.2874 24.3393 32.1268 23.9917 33.002 23.9917C37.0068 23.9917 40.2659 20.7326 40.2659 16.727C40.2659 12.7208 37.0068 9.46176 33.002 9.46176C32.1268 9.46176 31.2874 9.11408 30.6685 8.49521C30.0496 7.87634 29.702 7.03697 29.702 6.16176C29.702 5.28654 30.0496 4.44717 30.6685 3.8283C31.2874 3.20943 32.1268 2.86176 33.002 2.86176C40.6467 2.86176 46.8659 9.0816 46.8659 16.727C46.8659 24.3718 40.6467 30.5917 33.002 30.5917Z" fill="black"/><path d="M50.1112 43.0459C47.3576 43.0527 44.6647 42.2366 42.3782 40.7023C40.0916 39.168 38.3156 36.9855 37.2781 34.4348L43.3858 31.9341C43.9296 33.2707 44.8603 34.4144 46.0587 35.2183C47.257 36.0222 48.6682 36.4497 50.1112 36.4459C54.1161 36.4459 57.3751 33.1874 57.3751 29.1826C57.3751 27.1234 56.496 25.1526 54.9628 23.7758L59.373 18.8654C60.8205 20.1665 61.9783 21.7573 62.7712 23.5347C63.5642 25.3121 63.9746 27.2363 63.9758 29.1826C63.9751 36.8274 57.756 43.0459 50.1112 43.0459Z" fill="#ED1B2F"/><path d="M43.5818 63.1382C35.9377 63.1382 29.7185 56.9191 29.7185 49.2749C29.7185 44.3533 32.3631 39.7584 36.6201 37.2827L39.9379 42.9884C38.8388 43.6297 37.9265 44.5472 37.2916 45.65C36.6567 46.7528 36.3212 48.0025 36.3185 49.2749C36.3185 53.2798 39.5769 56.5382 43.5818 56.5382C45.5816 56.5382 47.4448 55.743 48.8281 54.2989L53.594 58.8647C50.954 61.6209 47.3979 63.1382 43.5818 63.1382Z" fill="#00AC4E"/></svg>

<svg viewBox="0 0 66 66" fill="none" xmlns="http://www.w3.org/2000/svg"><path d="M15.889 43.029c-7.645 0-13.864-6.219-13.864-13.863a13.818 13.818 0 0 1 3.701-9.431l4.837 4.49a7.24 7.24 0 0 0-1.939 4.941c0 4.005 3.26 7.263 7.264 7.263 3.02 0 5.756-1.9 6.81-4.727l6.184 2.305c-2.01 5.396-7.233 9.022-12.993 9.022Z" fill="#007DB9"/><path d="M33.002 30.592c-7.645 0-13.865-6.22-13.865-13.865 0-7.645 6.22-13.865 13.865-13.865a3.3 3.3 0 1 1 0 6.6c-4.006 0-7.265 3.259-7.265 7.265s3.26 7.265 7.265 7.265a3.3 3.3 0 1 1 0 6.6Z" fill="black"/><path d="M37.279 34.436a13.779 13.779 0 0 1-1.031-5.253c0-7.645 6.22-13.864 13.864-13.864a13.84 13.84 0 0 1 9.261 3.546l-4.41 4.91a7.251 7.251 0 0 0-4.852-1.856c-4.005 0-7.264 3.259-7.264 7.264 0 .954.181 1.88.538 2.75l-6.106 2.503Z" fill="#ED1B2F"/><path d="m53.594 58.865-4.766-4.566a7.228 7.228 0 0 0 2.017-5.024c0-4.006-3.258-7.265-7.263-7.265a7.252 7.252 0 0 0-3.644.978l-3.317-5.706a13.87 13.87 0 0 1 6.961-1.872c7.645 0 13.864 6.22 13.864 13.865a13.804 13.804 0 0 1-3.852 9.59Z" fill="#00AC4E"/><path d="M13.818 60.12A13.796 13.796 0 0 1 8.57 49.26c0-7.646 6.22-13.865 13.865-13.865 3.149 0 6.233 1.085 8.684 3.057l-4.137 5.142a7.18 7.18 0 0 0-4.548-1.6c-4.005 0-7.264 3.26-7.264 7.265a7.235 7.235 0 0 0 2.75 5.693l-4.103 5.169Z" fill="#FFCB08"/><path d="M22.436 63.122a13.912 13.912 0 0 1-8.618-3.001l4.104-5.169a7.185 7.185 0 0 0 4.514 1.57c4.005 0 7.264-3.258 7.264-7.263 0-2.21-.99-4.276-2.717-5.665l4.139-5.142A13.81 13.81 0 0 1 36.3 49.26c0 7.644-6.22 13.863-13.864 13.863Z" fill="#FFCB08"/><path d="m28.883 34.007-6.185-2.305a7.229 7.229 0 0 0 .454-2.536c0-4.005-3.259-7.263-7.264-7.263a7.193 7.193 0 0 0-5.325 2.322l-4.837-4.491a13.912 13.912 0 0 1 10.162-4.431c7.645 0 13.864 6.219 13.864 13.863a13.805 13.805 0 0 1-.87 4.841Z" fill="#007DB9"/><path d="M33.002 30.592a3.3 3.3 0 0 1 0-6.6c4.005 0 7.264-3.26 7.264-7.265 0-4.006-3.26-7.265-7.264-7.265a3.3 3.3 0 0 1 0-6.6c7.645 0 13.864 6.22 13.864 13.865 0 7.645-6.22 13.865-13.864 13.865Z" fill="black"/><path d="M50.111 43.046a13.817 13.817 0 0 1-12.833-8.611l6.108-2.5a7.24 7.24 0 0 0 6.725 4.51c4.005 0 7.264-3.258 7.264-7.262 0-2.06-.879-4.03-2.412-5.407l4.41-4.91a13.884 13.884 0 0 1 4.603 10.317c0 7.644-6.22 13.863-13.865 13.863Z" fill="#ED1B2F"/><path d="M43.582 63.138c-7.644 0-13.864-6.219-13.864-13.863 0-4.922 2.645-9.517 6.902-11.992l3.318 5.705a7.296 7.296 0 0 0-3.62 6.287c0 4.005 3.259 7.263 7.264 7.263 2 0 3.863-.795 5.246-2.24l4.766 4.567a13.744 13.744 0 0 1-10.012 4.273Z" fill="#00AC4E"/></svg>
